public/assets/techs/android.svg

<svg width="20" height="20" viewBox="0 0 20 20" fill="none" xmlns="http://www.w3.org/2000/svg">
<g clip-path="url(#clip0_310_108)">
<mask id="mask0_310_108" style="mask-type:luminance" maskUnits="userSpaceOnUse" x="0" y="0" width="20" height="20">
<path d="M20 0H0V20H20V0Z" fill="white"/>
</mask>
<g mask="url(#mask0_310_108)">
<path d="M12.4071 1.79272L13.2833 0.478432C13.3829 0.328752 13.3292 0.134861 13.1629 0.0451794C12.9962 -0.0448184 12.7812 0.00349617 12.6815 0.153493L11.757 1.54041C11.2065 1.3642 10.617 1.26315 10.0002 1.26315C9.38333 1.26315 8.79386 1.3642 8.24335 1.54041L7.3188 0.153493C7.21915 0.00349617 7.00372 -0.0445027 6.8374 0.0451794C6.67109 0.134861 6.61741 0.328752 6.71706 0.478432L7.59318 1.79272C5.89953 2.58059 4.73709 4.16898 4.73709 6.00019C4.73709 6.17482 4.89428 6.31598 5.08796 6.31598H14.9124C15.106 6.31598 15.2632 6.17482 15.2632 6.00019C15.2629 4.16929 14.1008 2.58091 12.4071 1.79272ZM5.45217 5.68441C5.63181 3.56773 7.60301 1.89503 10.0002 1.89503C12.3973 1.89503 14.3685 3.56773 14.5481 5.68441H5.45217Z" fill="#EEEEEE" stroke="#EEEEEE" stroke-width="0.2"/>
<path d="M12.4482 3.58855H11.9857C11.858 3.58855 11.7545 3.6817 11.7545 3.79665V4.21285C11.7545 4.32779 11.858 4.42095 11.9857 4.42095H12.4485C12.5763 4.42095 12.6798 4.32779 12.6798 4.21285V3.79665C12.6798 3.6817 12.5759 3.58855 12.4482 3.58855Z" fill="#EEEEEE" stroke="#EEEEEE" stroke-width="0.2"/>
<path d="M8.01424 3.58855H7.55144C7.42373 3.58855 7.32022 3.6817 7.32022 3.79665V4.21285C7.32022 4.32779 7.42373 4.42095 7.55144 4.42095H8.01424C8.14196 4.42095 8.24547 4.32779 8.24547 4.21285V3.79665C8.24547 3.6817 8.14196 3.58855 8.01424 3.58855Z" fill="#EEEEEE" stroke="#EEEEEE" stroke-width="0.2"/>
<path d="M14.912 6.63173H5.08763C4.89395 6.63173 4.73676 6.77288 4.73676 6.94751V13.3171C4.73676 14.1581 5.49779 14.8421 6.43287 14.8421H6.84198V16.7386C6.84198 17.434 7.47144 17.9999 8.24547 17.9999C9.01949 17.9999 9.64894 17.434 9.64894 16.7386V14.8421H10.3507V16.7386C10.3507 17.434 10.9802 17.9999 11.7542 17.9999C12.5282 17.9999 13.1577 17.434 13.1577 16.7386V14.8421H13.5668C14.5022 14.8421 15.2629 14.1581 15.2629 13.3171V6.94751C15.2629 6.77288 15.106 6.63173 14.912 6.63173ZM14.5611 13.3171C14.5611 13.8098 14.1152 14.2105 13.5668 14.2105H12.8068C12.6131 14.2105 12.4559 14.3517 12.4559 14.5263V16.7386C12.4559 17.086 12.1412 17.3683 11.7542 17.3683C11.3672 17.3683 11.0524 17.0857 11.0524 16.7386V14.5263C11.0524 14.3517 10.8952 14.2105 10.7016 14.2105H9.29808C9.1044 14.2105 8.94721 14.3517 8.94721 14.5263V16.7386C8.94721 17.086 8.63248 17.3683 8.24547 17.3683C7.85846 17.3683 7.54372 17.0857 7.54372 16.7386V14.5263C7.54372 14.3517 7.38653 14.2105 7.19285 14.2105H6.43322C5.88481 14.2105 5.4385 13.8095 5.4385 13.3171V7.26329H14.5611V13.3171Z" fill="#EEEEEE" stroke="#EEEEEE" stroke-width="0.2"/>
<path d="M16.8418 6.63173C16.1646 6.63173 15.6137 7.12814 15.6137 7.73823V12.1567C15.6137 12.7667 16.1646 13.2631 16.8418 13.2631C17.519 13.2631 18.0698 12.7667 18.0698 12.1567V7.73823C18.0698 7.12814 17.519 6.63173 16.8418 6.63173ZM17.3681 12.1567C17.3681 12.4184 17.132 12.6316 16.8418 12.6316C16.5516 12.6316 16.3155 12.4184 16.3155 12.1567V7.73823C16.3155 7.47645 16.5516 7.26329 16.8418 7.26329C17.132 7.26329 17.3681 7.47645 17.3681 7.73823V12.1567Z" fill="#EEEEEE" stroke="#EEEEEE" stroke-width="0.2"/>
<path d="M3.15783 6.63173C2.48065 6.63173 1.92978 7.12814 1.92978 7.73823V12.1567C1.92978 12.7667 2.48065 13.2631 3.15783 13.2631C3.83501 13.2631 4.38588 12.7667 4.38588 12.1567V7.73823C4.38588 7.12814 3.83501 6.63173 3.15783 6.63173ZM3.68413 12.1567C3.68413 12.4184 3.448 12.6316 3.15783 12.6316C2.86766 12.6316 2.63152 12.4184 2.63152 12.1567V7.73823C2.63152 7.47645 2.86766 7.26329 3.15783 7.26329C3.448 7.26329 3.68413 7.47645 3.68413 7.73823V12.1567Z" fill="#EEEEEE" stroke="#EEEEEE" stroke-width="0.2"/>
</g>
</g>
<defs>
<clipPath id="clip0_310_108">
<rect width="20" height="20" fill="white"/>
</clipPath>
</defs>
</svg>

<svg xmlns="http://www.w3.org/2000/svg" xmlns:xlink="http://www.w3.org/1999/xlink" width="20" height="20" fill="none" xmlns:v="https://vecta.io/nano"><g clip-path="url(#B)"><mask id="A" maskUnits="userSpaceOnUse" x="0" y="0" width="20" height="20"><path d="M20 0H0V20H20V0Z" fill="#fff"/></mask><g mask="url(#A)"><path d="M12.407 1.793l.876-1.314c.1-.15.046-.344-.12-.433s-.382-.042-.481.108l-.925 1.387A5.75 5.75 0 0 0 10 1.263a5.75 5.75 0 0 0-1.757.277L7.319.153c-.1-.15-.315-.198-.481-.108s-.22.284-.12.433l.876 1.314C5.9 2.581 4.737 4.169 4.737 6c0 .175.157.316.351.316h9.824c.194 0 .351-.141.351-.316 0-1.831-1.162-3.419-2.856-4.207zM5.452 5.684C5.632 3.568 7.603 1.895 10 1.895s4.368 1.673 4.548 3.789H5.452zm6.996-2.095h-.463c-.128 0-.231.093-.231.208v.416c0 .115.104.208.231.208h.463c.128 0 .231-.093.231-.208v-.416c0-.115-.104-.208-.232-.208zm-4.434 0h-.463c-.128 0-.231.093-.231.208v.416c0 .115.104.208.231.208h.463c.128 0 .231-.093.231-.208v-.416c0-.115-.104-.208-.231-.208zm6.898 3.043H5.088c-.194 0-.351.141-.351.316v6.37c0 .841.761 1.525 1.696 1.525h.409v1.897c0 .695.629 1.261 1.403 1.261s1.403-.566 1.403-1.261v-1.897h.702v1.897c0 .695.63 1.261 1.404 1.261s1.403-.566 1.403-1.261v-1.897h.409c.935 0 1.696-.684 1.696-1.525v-6.37c0-.175-.157-.316-.351-.316zm-.351 6.685c0 .493-.446.893-.994.893h-.76c-.194 0-.351.141-.351.316v2.212c0 .347-.315.63-.702.63s-.702-.283-.702-.63v-2.212c0-.175-.157-.316-.351-.316H9.298c-.194 0-.351.141-.351.316v2.212c0 .347-.315.63-.702.63s-.702-.283-.702-.63v-2.212c0-.175-.157-.316-.351-.316h-.76c-.548 0-.995-.401-.995-.893V7.263h9.123v6.054z" fill="#a4c638" stroke="#a4c638" stroke-width=".2"/><use xlink:href="#C" fill="#a4c638" stroke="#a4c638" stroke-width=".2"/><path d="M3.158 6.632c-.677 0-1.228.496-1.228 1.106v4.418c0 .61.551 1.106 1.228 1.106s1.228-.496 1.228-1.106V7.738c0-.61-.551-1.106-1.228-1.106zm.526 5.525c0 .262-.236.475-.526.475s-.526-.213-.526-.475V7.738c0-.262.236-.475.526-.475s.526.213.526.475v4.418z" fill="#a4c638" stroke="#a4c638" stroke-width=".2"/></g></g><defs><clipPath id="B"><path fill="#fff" d="M0 0h20v20H0z"/></clipPath><path id="C" d="M16.842 6.632c-.677 0-1.228.496-1.228 1.106v4.418c0 .61.551 1.106 1.228 1.106s1.228-.496 1.228-1.106V7.738c0-.61-.551-1.106-1.228-1.106zm.526 5.525c0 .262-.236.475-.526.475s-.526-.213-.526-.475V7.738c0-.262.236-.475.526-.475s.526.213.526.475v4.418z"/></defs></svg>
